packages/ffe-icons/icons/filled/md/view_sidebar.svg

<svg xmlns="http://www.w3.org/2000/svg" height="24" viewBox="0 -960 960 960" width="24"><path d="M754.229-619.999q-22.692 0-38.461-15.769-15.769-15.769-15.769-38.461v-51.539q0-23.077 15.769-38.654 15.769-15.577 38.461-15.577h51.539q23.077 0 38.654 15.577 15.577 15.577 15.577 38.654v51.539q0 22.692-15.577 38.461-15.577 15.769-38.654 15.769h-51.539Zm0 219.999q-22.692 0-38.461-15.769-15.769-15.769-15.769-38.461v-51.54q0-23.076 15.769-38.653Q731.537-560 754.229-560h51.539q23.077 0 38.654 15.577 15.577 15.577 15.577 38.653v51.54q0 22.692-15.577 38.461Q828.845-400 805.768-400h-51.539Zm-581.92 219.999q-30.308 0-51.308-21t-21-51.308v-455.382q0-30.308 21-51.308t51.308-21h395.384q30.307 0 51.307 21 21 21 21 51.308v455.382q0 30.308-21 51.308t-51.307 21H172.309Zm581.92 0q-22.692 0-38.461-15.77-15.769-15.769-15.769-38.461v-51.539q0-23.077 15.769-38.654 15.769-15.576 38.461-15.576h51.539q23.077 0 38.654 15.576 15.577 15.577 15.577 38.654v51.539q0 22.692-15.577 38.461-15.577 15.77-38.654 15.77h-51.539Z"/></svg>

<svg xmlns="http://www.w3.org/2000/svg" height="24" viewBox="0 -960 960 960" width="24"><path d="M754.23-620q-22.69 0-38.46-15.77T700-674.23v-51.54q0-23.07 15.77-38.65Q731.54-780 754.23-780h51.54q23.07 0 38.65 15.58Q860-748.84 860-725.77v51.54q0 22.69-15.58 38.46T805.77-620h-51.54Zm0 220q-22.69 0-38.46-15.77T700-454.23v-51.54q0-23.08 15.77-38.65Q731.54-560 754.23-560h51.54q23.07 0 38.65 15.58Q860-528.85 860-505.77v51.54q0 22.69-15.58 38.46T805.77-400h-51.54ZM172.31-180Q142-180 121-201q-21-21-21-51.31v-455.38Q100-738 121-759q21-21 51.31-21h395.38Q598-780 619-759q21 21 21 51.31v455.38Q640-222 619-201q-21 21-51.31 21H172.31Zm581.92 0q-22.69 0-38.46-15.77T700-234.23v-51.54q0-23.08 15.77-38.65Q731.54-340 754.23-340h51.54q23.07 0 38.65 15.58Q860-308.85 860-285.77v51.54q0 22.69-15.58 38.46T805.77-180h-51.54Z"/></svg>
